X:264
T:Swing 51
C:By Tony Rice - David Grisman and Darol Anger solos
N:TablEdited by Kim Davis and Mike Stangeland
L:1/8
Q:1/4=185
M:4/4
K:D
z8 | bz af ed e3/2B/ | "Dmaj7"ce Bc z4 | z2 Bc ec B2 | "Dm7"=cB c^c eg a=c' | 
za3/2z(3g (3edc dA | "G"B3/2A/ B3/2d/ z3/2B/ zA | B3/2d/ z4 G2 | "Fmaj7"A2 =cA cd eg | 
"Bb7"ze d=c dc ^G^g | "Dmaj7"ze cB zB (3ccc | (3ccc (3ccc (3ccc (3ccc | "Dm7"=cB cd eg a=c' | 
za3/2z(3g (3edc dA | "G"B3/2A/ B3/2d/ z3/2B/ zA | B3/2d/ z4 G2 | "Asus9"A2 cA cd z2 | 
"A"c2 E3/2F/ AF d2 | (3"Bm7"ccc (3ccc (3ccc c3/2d/ | zB AG BA z2 | "Cmaj7"z2 zz/B/ ee f2 | 
z8 | "C# m7"F/^G/z B=G ec z^g | "F#7"ze cB2c zf | "Bm7"zd BA zB zF | "E7"^GB G3/2e/ z4 | 
"Asus9"z2 e3f ze | fg f2 ed ee | "A"z8 | zz e3/2f/ af d'2 | (3"Dmaj7"c'c'c' (3c'c'c' (3c'c'c' (3c'c'c' | 
(3c'c'c' (3c'c'c' c'2 c'2 | "Dm7"e2 e2 e3/2A/ =c3/2e/ | z3/2A/ =c3/2e/ e3/2A/ ce | 
"G"dB z4 GE | z2 B,A, z2 B,z | "Fmaj7"z2 A,G zG Az | "Bb7"=c^A zG G=F z2 | "Dmaj7"{=F}(3^FFF (3FFF (3FFF (3FFF | 
(3FFF (3FFF (3FFF (3AAA | "Dm7"(3=FFF (3FFF (3FFF (3FFF | (3=FFF (3FFF (3FFF G3/2D/ | 
"G"(3EEE (3EEE (3EEE (3EEE | (3EEE (3EEE (3EEE G2 | "Asus9"cA cd zc dd | ez z2 cA Bc | 
"Bm7"A3/2(3=F (3^FFF (3FFF (3FFF | (3FFF (3FFF (3FFF (3GED | "Cmaj7"(3AED (3BED (3dBA (3eBA | 
(3gfe (3age b7/2z/ | "C# m7"z4 cd zd | "F#7"(3eee (3eee d2 c3/2d/ | "Bm7"zd (3eee ed zd | 
"E7"B4 cd zd | "Asus9"(3eee (3eee (3eee gb | zb ze gb ze | "A"bz2g b2 a'2 | zz z2 z4 | 
"Dmaj7"{=F}(3^FFF (3FFF (3FFF (3FFF | (3FFF (3FFF (3FFF (3FFF | "Dm7"(3=FFF (3FFF (3FFF (3FFF | 
(3=FFF (3FFF (3FFF GD | "G"{D}(3EEE (3EEE (3EEE (3EEE | (3EEE (3EEE (3EEE (3EEE | 
"Fmaj7"(3EEE (3=FFF (3FFF (3FFF | "Bb7"(3=FFF (3FFF (3FFF FD | "Dmaj7"(3EEE (3EEE (3EEE (3EEE | 
(3EEE (3EEE (3EEE (3EEE | "Dm7"(3=FFF (3FFF (3FFF (3FFF | (3=FFF (3FFF (3FFF (3FFF | 
"G"(3EEE (3EEE (3EEE (3EEE | (3EEE (3EEE (3EEE (3EEE | "Asus9"(3EEE (3EEE (3EEE (3EEE | 
Ez z4 z3/2=F/ | "Bm7"(3FFF (3FFF (3FFF (3FFF | (3FFF (3FFF (3GGG (3BBd | "Cmaj7"(3ddd (3eee (3eee (3eee | 
(3gga (3aab (3bbg (3age | "C# m7"z8 | (3"F#7"f=fe (3eee (3eee | "Bm7"fa ze (3ded zc | 
"E7"zd zd e4 | "Asus9"z3d zc zB | zc zd zB zc | "A"zA zE z4 | Ez z2 z4 | "Darol Anger's fi"z4 (3ABc e2 | 
z2 e2 Az Az | z4 (3ABd e2 | z2 e2 Az Az | z4 (3GFG B2 | d3/2z/ e3/2=c/ Bd z2 | 
cd ea z3/2a/ ge | ^a=a ga za fd | Be cd de/d/ BF | z4 zD zE | (3=FED G=C ^FG A=c | 
de e2 =cB z2 | z2 B2 AG ED | (3EGA Bd eg fg | zg fd Be c2 | z2 c2 Bc BA | Bc de fd Bb | 
z2 af z4 | ga bg ef (3ge=c | zd eA zB =c3/2A/ | (3B^A=A GD E=F ^FA | B=c ^ce (3gfe d2 | 
z2 Bc df ed | B4 (3B=c^c fd | Be dA dB cd | ef ge fg ^ga | (3agf e^d =dA c2 | 
ee cA Bc BA | F2 A3/2F/ A4 | zF EG (3=FED ED | =FD FE A=c d2 | d2 =cd AG =FD | 
ED EG zF ED | EG z4 {G}A2 | =cA c2 d^c d2 | ed e2 ge ga | za ec Be cA | dB G3/2D/ E3z | 
=cB cd eg ag | =c'/b/g ag ^d/=d/c dc | BA Bd z2 {A}BA | Bd z4 {G}Az | cA c2 dc d2 | 
ec e2 ge gf | z4 a/f/e df | ed B6 | B/c/e aa3 gg | z2 bb3 gg | z2 f2 e3/2d/ BA | 
(3Bcd fd AB dA | f3/2=f/ ^fa z2 f=f | b^g z6 | za fe fd B2 | a'a' e''a' e''a'' e''a' | 
e''8 | z2 ef ab d'c' | z8 | 
 

